X: 26
T:John Brennan`s
M:C
L:1/8
K:D
D2 FA d2 ed| cdBd AF ~F2| BAGB ADFA| BAGF EGFE|
~D2 FA d2 ed| cdBd AF ~F2| BAGB ABdf| afeg fd d2 :|
|| ~f2 df (3eee de| fedB AF ~F2| BAGB AFDA|  BAGF EFGe|
~f2 df e2 de| fedB AF ~F2| BAGB ABdf| afeg fd d2|
~f2 df (3eee de| fedB AF ~F2| BAGB AFDA| BAGF EGFE|
 ~D2 FA d2 ed| cdBd AF ~F2| BAGB ABdf| afeg fd d2||
